X:01
T: Bill Harte's
Z: from John William's Steam
M: 4/4
L: 1/8
Z: Contributed 20030103185723 by Zina Lee zlee@ntw.net
K: D mix
|| DEGA BG G2 | BGdB AB GE | DEGA Beed | BAAB A2 GE |
DEGA BG G2 | BGdB AB GE | DEGA Beed |BAAB A2 Bd ||
eA (3AAA Bdeg | dG (3GGG GABd | eA (3AAA Bdeg | dBGB A2 (3cBA |
eA (3AAA Bdeg | dG (3GGG GABd | eg g2 edea | gedB ABGE ||

Variation measure 1 or 5:
|| JD3 A2JB G2 |
